X:1
T:The Good Old Christian Way
T:The Good Old Christian Way
T:James Ramsey Murray
T:Charles Carlton Overton, 1896
T:Public Domain Courtesy of the Cyber Hymnal™
T:Public Domain Courtesy of the Cyber Hymnal™
C:James Ramsey Murray
Z:Public Domain
Z:Courtesy of the Cyber Hymnal™
%%score ( 1 2 ) ( 3 4 )
L:1/8
Q:1/4=87
M:4/8
K:Bb
V:1 treble 
V:2 treble 
V:3 bass 
V:4 bass 
V:1
 [DF][DF][FB][EA][DB] | (cB)[EG][EG] | [DF][EG][DF][CE] | [B,D]3 [CE] | [DF][FB][EA][DB] | %5
w: 1.~’Tis in the Ho- ly|Bi- * ble, The|pre- cious word of|God, I|find the way to|
w: 2.~My fa- ther and my|mo- * ther Both|jour- neyed on this|road; They|taught me in my|
w: 3.~And when my jour- ney’s|end- * ed, And|I am home a-|bove, En-|joy- ing Heav- en’s|
 (cB)[EG][EG] | F[DB][DB][Ec] | [DB]3 [Fd] | [Ec][EA] x2 | [EG][EF] | (FB)[DB][Fd] | %11
w: Heav- * en There|giv- en by my|Lord. He|says that|He will|lead * me By|
w: child- * hood, It|lead to Heav’n and|God; Its|path is|peace and|bless- * ing— All|
w: bless- * ings, Filled|with my Sav- ior’s|love, I’ll|sing loud|hal- le-|lu- * jahs, To|
 [Ee][Fd][Gc]G | [Fc]3 [Fc] | [^Fd]>[Fe][Fd][FA] | (cB)[EG][EG]/[EG]/ | F[DB][DB][Ec] | [DB]3 z2 || %17
w: night as well as|day, And|guide me by His|Spir- * it In the|good old Christ- ian|way.|
w: trav- elers on it|say No|o- ther way’s so|hap- * py As the|good old Christ- ian|way.|
w: Je- sus ev- er|pray A|prayer of praise, for|giv- * ing Me the|good old Christ- ian|way.|
"^Refrain" [Ge]2 [EG] z x | [Fd]2 [DF] z | F[FB]/[FB]/[EA][DB] | [Fc]3 F | [^Fd]>[Fe][Fd][FA] | %22
w: |||||
w: God’s way!|Christ’s way!|That is the way for|me. It|leads from earth to|
w: |||||
 (cB)[EG][EG] | F[DB][DB][Ec] | [DB]3 x |] x3 |] %26
w: ||||
w: Heav- * en, Where|Je- sus I shall|see.||
w: ||||
V:2
 x5 | E2 x2 | x4 | x4 | x4 | E2 x2 | F x3 | x4 | x4 | x2 | D2 x2 | x3 G | x4 | x4 | G2 x2 | F x3 | %16
 x5 || x5 | x4 | F x3 | x3 F | x4 | G2 x2 | F x3 | x4 |] x3 |] %26
V:3
 [B,,B,] x4 | [B,,B,][D,B,][C,F,][B,,B,] | [E,G,]2 [E,B,][E,B,] | [F,B,][F,B,][F,B,]F, | %4
 [B,,F,]3 [B,,F,] | [B,,B,][D,B,][C,F,][B,,B,] | [E,G,]2 [E,B,][E,B,] | [D,B,][B,,B,]F,F, | %8
 [B,,F,]3 B,, | [F,A,][F,C] | [F,A,][F,A,] x2 | [B,,B,]2 [B,,F,][B,,B,] | %12
 [C,G,][D,=B,][E,C][=E,C] | [F,A,]3 [F,A,] | [D,A,]>[D,A,][D,A,][D,D] | %15
 [E,B,]2 [E,E][E,B,]/[E,B,]/ | [D,B,][B,,B,]F,F, x || [B,,F,]3 z2 | [E,B,]2 [E,B,] z | B,2 B, z | %20
 [D,B,][D,B,]/[D,B,]/[C,F,][B,,B,] | [F,A,]3 F, | [D,A,]>[D,A,][D,A,][D,D] | [E,B,]2 [E,E][E,B,] | %24
 [D,B,][B,,B,]F,F, |] [B,,F,]3 |] %26
V:4
 x5 | x4 | x4 | x3 F, | x4 | x4 | x4 | x2 F,F, | x3 B,, | x2 | x4 | x4 | x4 | x4 | x4 | x4 | %16
 x2 F,F, x || x5 | x4 | B,2 B, x | x4 | x3 F, | x4 | x4 | x2 F,F, |] x3 |] %26

